img/belka.svg

<?xml version="1.0" encoding="UTF-8" standalone="no"?>
<svg width="159px" height="50px" viewBox="0 0 159 50" version="1.1" xmlns="http://www.w3.org/2000/svg" xmlns:xlink="http://www.w3.org/1999/xlink">
    <!-- Generator: Sketch 39.1 (31720) - http://www.bohemiancoding.com/sketch -->
    <title>logo</title>
    <desc>Created with Sketch.</desc>
    <defs></defs>
    <g id="Page-1" stroke="none" stroke-width="1" fill="none" fill-rule="evenodd">
        <g id="logo">
            <g id="Page-1">
                <g id="Artboard">
                    <g id="logo">
                        <g id="Page-1">
                            <g id="logo">
                                <g id="Fill-25-+-Fill-26" fill="#000000">
                                    <path d="M22.3979629,27.9017411 C22.102661,27.35722 21.6991515,26.7699101 21.3116987,26.9479665 C20.746227,27.2067693 19.9734157,28.8831214 20.3406232,29.0984453 C20.7078308,29.3179101 22.6904723,28.4462622 22.3979629,27.9017411" id="Fill-25"></path>
                                    <path d="M20.9887736,17.1230845 C16.3777358,17.1230845 12.2372264,19.070662 9.33307547,22.1693944 L9.33307547,0 L0,11.8966479 L0,48.5596901 L9.33307547,48.5596901 L9.33307547,33.5449859 C10.0276981,34.2861972 12.5723208,35.5898732 14.7029623,33.5284225 C16.3937925,31.8920986 16.1822642,29.3337465 16.1822642,29.3337465 C16.1822642,29.3337465 15.3752453,33.5277324 12.5625472,33.5021972 C8.11766038,33.462169 9.07198113,29.9741972 10.9547925,27.0859577 C13.3981887,23.3350423 15.8332075,24.0824648 18.4972075,24.0341549 C21.6470943,23.9775634 23.8321887,25.3047042 24.154717,25.4965634 C24.4751509,25.685662 28.7008302,25.6180282 30.9515472,25.6477042 C32.8294717,25.6732394 32.3854717,26.5124507 31.998717,29.9452113 C31.6140566,33.3779718 29.476434,33.8396761 24.8339811,35.6160986 C21.4739623,36.9011408 20.732566,42.664507 14.4998113,47.1897606 C16.4824528,48.069 18.6759245,48.5610704 20.9887736,48.5610704 C29.7696415,48.5610704 36.8883019,41.5223239 36.8883019,32.8410423 C36.8883019,24.1604507 29.7696415,17.1230845 20.9887736,17.1230845" id="Fill-26"></path>
                                </g>
                                <polygon id="Path-1" stroke="#FFFFFF" points="8 49 8.30145264 49 8 49"></polygon>
                            </g>
                        </g>
                        <path d="M46.354,48.259 C46.354,48.649 46.666,49 47.095,49 L56.767,49 C61.408,49 65.269,45.841 65.269,41.473 C65.269,37.885 62.11,35.974 60.043,35.116 C61.876,34.141 64.567,31.957 64.567,28.954 C64.567,24.859 60.784,21.7 56.182,21.7 L47.095,21.7 C46.666,21.7 46.354,22.051 46.354,22.441 L46.354,48.259 L46.354,48.259 Z M52.438,32.776 L52.438,27.316 L55.48,27.316 C56.962,27.316 58.21,28.408 58.21,29.968 C58.21,31.528 56.962,32.776 55.48,32.776 L52.438,32.776 L52.438,32.776 Z M52.438,43.423 L52.438,37.846 L55.597,37.846 C57.118,37.846 58.795,39.016 58.795,40.576 C58.795,42.175 57.508,43.423 55.987,43.423 L52.438,43.423 L52.438,43.423 Z M68.222,48.259 C68.222,48.649 68.534,49 68.963,49 L85.109,49 C85.538,49 85.85,48.649 85.85,48.259 L85.85,44.008 C85.85,43.618 85.538,43.267 85.109,43.267 L74.306,43.267 L74.306,38.002 L83.198,38.002 C83.588,38.002 83.939,37.69 83.939,37.261 L83.939,33.01 C83.939,32.62 83.588,32.269 83.198,32.269 L74.306,32.269 L74.306,27.433 L85.109,27.433 C85.538,27.433 85.85,27.082 85.85,26.692 L85.85,22.441 C85.85,22.051 85.538,21.7 85.109,21.7 L68.963,21.7 C68.534,21.7 68.222,22.051 68.222,22.441 L68.222,48.259 L68.222,48.259 Z M89.076,48.259 C89.076,48.649 89.388,49 89.817,49 L104.481,49 C104.91,49 105.222,48.649 105.222,48.259 L105.222,44.008 C105.222,43.618 104.91,43.267 104.481,43.267 L95.199,43.267 L95.199,22.441 C95.199,22.051 94.848,21.7 94.458,21.7 L89.817,21.7 C89.388,21.7 89.076,22.051 89.076,22.441 L89.076,48.259 L89.076,48.259 Z M108.005,48.064 C108.005,48.571 108.395,49 108.941,49 L113.504,49 C114.011,49 114.44,48.571 114.44,48.064 L114.44,36.442 L123.449,48.688 C123.527,48.805 123.878,48.961 124.151,48.961 L129.533,48.961 C130.274,48.961 130.703,48.103 130.274,47.518 L120.329,34.57 L129.455,23.143 C129.884,22.558 129.494,21.7 128.753,21.7 L123.839,21.7 C123.605,21.7 123.254,21.895 123.098,22.09 L114.44,32.893 L114.44,22.636 C114.44,22.129 114.011,21.7 113.504,21.7 L108.941,21.7 C108.395,21.7 108.005,22.129 108.005,22.636 L108.005,48.064 L108.005,48.064 Z M133.405,49 L137.695,49 C138.475,49 138.904,48.532 139.099,48.064 L140.503,44.944 L151.111,44.944 L152.515,48.025 C152.866,48.766 153.178,49 153.88,49 L158.209,49 C158.794,49 159.106,48.493 158.872,47.986 L146.665,21.739 C146.548,21.505 146.275,21.31 146.002,21.31 L145.612,21.31 C145.339,21.31 145.066,21.505 144.949,21.739 L132.742,47.986 C132.508,48.493 132.82,49 133.405,49 L133.405,49 L133.405,49 Z M142.843,39.64 L145.768,33.205 L145.807,33.205 L148.771,39.64 L142.843,39.64 L142.843,39.64 Z" id="BELKA" fill="#000000"></path>
                    </g>
                </g>
            </g>
        </g>
    </g>
</svg>

<svg width="159" height="50" viewBox="0 0 159 50" xmlns="http://www.w3.org/2000/svg"><title>logo</title><g fill="none" fill-rule="evenodd"><g fill="#000"><path d="M22.398 27.902c-.295-.545-.699-1.132-1.086-.954-.566.259-1.339 1.935-.971 2.15.367.22 2.35-.652 2.057-1.196"/><path d="M20.989 17.123A15.924 15.924 0 0 0 9.333 22.17V0L0 11.897V48.56h9.333V33.545c.695.741 3.24 2.045 5.37-.017 1.69-1.636 1.48-4.194 1.48-4.194s-.808 4.194-3.62 4.168c-4.445-.04-3.491-3.528-1.608-6.416 2.443-3.751 4.878-3.004 7.542-3.052 3.15-.056 5.335 1.27 5.658 1.463.32.189 4.546.121 6.797.15 1.877.026 1.433.865 1.047 4.298-.385 3.433-2.523 3.895-7.165 5.671-3.36 1.285-4.101 7.049-10.334 11.574a15.961 15.961 0 0 0 6.489 1.371c8.78 0 15.9-7.039 15.9-15.72 0-8.68-7.12-15.718-15.9-15.718"/></g><path stroke="#FFF" d="M8 49L8.30145264 49 8 49z"/><path d="M46.354 48.259c0 .39.312.741.741.741h9.672c4.641 0 8.502-3.159 8.502-7.527 0-3.588-3.159-5.499-5.226-6.357 1.833-.975 4.524-3.159 4.524-6.162 0-4.095-3.783-7.254-8.385-7.254h-9.087a.74.74 0 0 0-.741.741v25.818zm6.084-15.483v-5.46h3.042c1.482 0 2.73 1.092 2.73 2.652s-1.248 2.808-2.73 2.808h-3.042zm0 10.647v-5.577h3.159c1.521 0 3.198 1.17 3.198 2.73 0 1.599-1.287 2.847-2.808 2.847h-3.549zm15.784 4.836c0 .39.312.741.741.741h16.146a.74.74 0 0 0 .741-.741v-4.251a.74.74 0 0 0-.741-.741H74.306v-5.265h8.892a.74.74 0 0 0 .741-.741V33.01a.767.767 0 0 0-.741-.741h-8.892v-4.836h10.803a.74.74 0 0 0 .741-.741v-4.251a.74.74 0 0 0-.741-.741H68.963a.74.74 0 0 0-.741.741v25.818zm20.854 0c0 .39.312.741.741.741h14.664a.74.74 0 0 0 .741-.741v-4.251a.74.74 0 0 0-.741-.741h-9.282V22.441a.767.767 0 0 0-.741-.741h-4.641a.74.74 0 0 0-.741.741v25.818zm18.929-.195c0 .507.39.936.936.936h4.563a.949.949 0 0 0 .936-.936V36.442l9.009 12.246c.078.117.429.273.702.273h5.382c.741 0 1.17-.858.741-1.443l-9.945-12.948 9.126-11.427c.429-.585.039-1.443-.702-1.443h-4.914c-.234 0-.585.195-.741.39l-8.658 10.803V22.636a.949.949 0 0 0-.936-.936h-4.563a.924.924 0 0 0-.936.936v25.428zm25.4.936h4.29c.78 0 1.209-.468 1.404-.936l1.404-3.12h10.608l1.404 3.081c.351.741.663.975 1.365.975h4.329c.585 0 .897-.507.663-1.014l-12.207-26.247c-.117-.234-.39-.429-.663-.429h-.39c-.273 0-.546.195-.663.429l-12.207 26.247c-.234.507.078 1.014.663 1.014zm9.438-9.36l2.925-6.435h.039l2.964 6.435h-5.928z" fill="#000"/></g></svg>
